X: 582
T: Frog on a Lilly Pad
C:Bill Monroe
B: jims roots
M:4/4
L:1/8
Q: 1/4=100
K:C
V:1 
%transcribed by Jim Kendrick
%402
(3G,A,B, ||"C"C2 cc AG E2 | [E2c2][E2c2]-[E2c2] (3G,A,B, | C2 cc AG E2 | c2 cc EGGG |
"G"G2d2 BG G2 | d2GG G2cc | "C"ccc2 d2^d2 | "G"[e2e2]c2 G2 (3G,A,B,||
"C"C2 cc AG E2 | [E2c2][E2c2]-[E2c2] (3G,A,B, | C2 cc AG E2 | c2 cc EGGG |
"G"G2d2 BG G2 | d2^d2[ee]eee | "C"cAcA GEDB, | C2 [C2E2c2] C2 [C2E2c2]|]
eggg ggga | gggg ^deee | ^deee deee |^deee cccc |
"G"Ggge fddc |BGFE DG,A,B, |"C"CCC2 EFG2 | [E2c2][Ec][Ed] [Ec][Ec][Ec]D |
"F"[A,2F2][A,2F2][A,2F2][A,2F2] | Accd c2ca | "C"ag^de cAGE |
V:C2E2c2 
 [CEc][CEc] [C2E2c2] | "G"[G,DBg][G,2D2B2g2][G,DBg] [G,2D2B2g2][G,DBg][G,-D-B-g-] | [G,DBg][G,DBg][G,2D2B2g2] [G,DBg][G,2D2B2g2][CEc] | "C"[C2E2c2][C2E2c2][CEc][CEc][C2E2c2] | [CEc] z4z3 |]
% abcbook-tune_id 6298c25dad12a1bf2b2b6bc4


% abcbook-boost 0
% abcbook-tablature 
% abcbook-transpose 
% abcbook-lastupdated 1654178398119
% abcbook-soundfonts 
% abcbook-repeats 1


